X: 39629
T: Tempest, The
R: reel
M: 4/4
K: Edorian
|:e2 dB AFEF|DFdF eFdF|e2 dB AFdF|FEDE FEE2|
e2 dB AFEF|DFdF eFdF|DEFB AFdF|FEDE FE E2:|
|:e2 fe dBAd|BedB AFEF|e2 fe defg|fedB e2ba|
fbaf edBd|dBAd BFAF|DEFB AFdF|FEDE FE E2:|

